eladmin-web/src/assets/icons/svg/web.svg

<?xml version="1.0" standalone="no"?><!DOCTYPE svg PUBLIC "-//W3C//DTD SVG 1.1//EN" "http://www.w3.org/Graphics/SVG/1.1/DTD/svg11.dtd"><svg t="1572860137475" class="icon" viewBox="0 0 1024 1024" version="1.1" xmlns="http://www.w3.org/2000/svg" p-id="1681" xmlns:xlink="http://www.w3.org/1999/xlink" width="200" height="200"><defs><style type="text/css"></style></defs><path d="M698.026667 597.333333C701.44 569.173333 704 541.013333 704 512 704 482.986667 701.44 454.826667 698.026667 426.666667L842.24 426.666667C849.066667 453.973333 853.333333 482.56 853.333333 512 853.333333 541.44 849.066667 570.026667 842.24 597.333333M622.506667 834.56C648.106667 787.2 667.733333 736 681.386667 682.666667L807.253333 682.666667C766.293333 753.066667 701.013333 807.68 622.506667 834.56M611.84 597.333333 412.16 597.333333C407.893333 569.173333 405.333333 541.013333 405.333333 512 405.333333 482.986667 407.893333 454.4 412.16 426.666667L611.84 426.666667C615.68 454.4 618.666667 482.986667 618.666667 512 618.666667 541.013333 615.68 569.173333 611.84 597.333333M512 851.626667C476.586667 800.426667 448 743.68 430.506667 682.666667L593.493333 682.666667C576 743.68 547.413333 800.426667 512 851.626667M341.333333 341.333333 216.746667 341.333333C257.28 270.506667 322.986667 215.893333 401.066667 189.44 375.466667 236.8 356.266667 288 341.333333 341.333333M216.746667 682.666667 341.333333 682.666667C356.266667 736 375.466667 787.2 401.066667 834.56 322.986667 807.68 257.28 753.066667 216.746667 682.666667M181.76 597.333333C174.933333 570.026667 170.666667 541.44 170.666667 512 170.666667 482.56 174.933333 453.973333 181.76 426.666667L325.973333 426.666667C322.56 454.826667 320 482.986667 320 512 320 541.013333 322.56 569.173333 325.973333 597.333333M512 171.946667C547.413333 223.146667 576 280.32 593.493333 341.333333L430.506667 341.333333C448 280.32 476.586667 223.146667 512 171.946667M807.253333 341.333333 681.386667 341.333333C667.733333 288 648.106667 236.8 622.506667 189.44 701.013333 216.32 766.293333 270.506667 807.253333 341.333333M512 85.333333C276.053333 85.333333 85.333333 277.333333 85.333333 512 85.333333 747.52 276.48 938.666667 512 938.666667 747.52 938.666667 938.666667 747.52 938.666667 512 938.666667 276.48 747.52 85.333333 512 85.333333Z" p-id="1682" fill="#515151"></path></svg>

<svg class="icon" viewBox="0 0 1024 1024" xmlns="http://www.w3.org/2000/svg" width="200" height="200"><defs><style/></defs><path d="M698.027 597.333C701.44 569.173 704 541.013 704 512c0-29.013-2.56-57.173-5.973-85.333H842.24c6.827 27.306 11.093 55.893 11.093 85.333 0 29.44-4.266 58.027-11.093 85.333M622.507 834.56c25.6-47.36 45.226-98.56 58.88-151.893h125.866c-40.96 70.4-106.24 125.013-184.746 151.893M611.84 597.333H412.16c-4.267-28.16-6.827-56.32-6.827-85.333 0-29.013 2.56-57.6 6.827-85.333h199.68c3.84 27.733 6.827 56.32 6.827 85.333 0 29.013-2.987 57.173-6.827 85.333M512 851.627c-35.413-51.2-64-107.947-81.493-168.96h162.986C576 743.68 547.413 800.427 512 851.627M341.333 341.333H216.747c40.533-70.826 106.24-125.44 184.32-151.893-25.6 47.36-44.8 98.56-59.734 151.893M216.747 682.667h124.586C356.267 736 375.467 787.2 401.067 834.56c-78.08-26.88-143.787-81.493-184.32-151.893m-34.987-85.334c-6.827-27.306-11.093-55.893-11.093-85.333 0-29.44 4.266-58.027 11.093-85.333h144.213C322.56 454.827 320 482.987 320 512c0 29.013 2.56 57.173 5.973 85.333M512 171.947c35.413 51.2 64 108.373 81.493 169.386H430.507C448 280.32 476.587 223.147 512 171.947m295.253 169.386H681.387C667.733 288 648.107 236.8 622.507 189.44c78.506 26.88 143.786 81.067 184.746 151.893M512 85.333c-235.947 0-426.667 192-426.667 426.667 0 235.52 191.147 426.667 426.667 426.667 235.52 0 426.667-191.147 426.667-426.667C938.667 276.48 747.52 85.333 512 85.333z"/></svg>
